X:1
T:0112 - Psalm Goudimel
T:0112 - Psalm Goudimel
T:Harmonisatie: Claude Goudimel 1565
T:Melodie: Geneve 1562
C:Harmonisatie: Claude Goudimel 1565
Z:Melodie: Geneve 1562
%%score { ( 1 2 ) | ( 3 4 ) }
L:1/8
M:16/4
K:C
V:1 treble nm="Orgel" snm="Org."
V:2 treble 
V:3 bass 
V:4 bass 
V:1
"^c.f." A4 c2 B2 A4 F4 G2 F2 E4 D4 z4 | F4 D2 E2 F2 G2 A2 c2 B4 A4 z4 | %2
 A4 _B2 A2 F2 G2 A2 B2 G4 F4 z4 | F4 G2 F2 D2 E2 F2 G2 A4 D4 z4 | d4 c2 d2 A2 B2 c2 d2 B4 A4 z4 | %5
 A4 B4 c4 A2 F2 G2 F2 E4 D8 || F4 G2 G2 E4 D4 E2 D4 ^C2 D4 z4 | D4 F2 C2 D2 E2 E2 A4 ^G2 A4 z4 | %8
 F4 G2 E2 D2 E2 F2 F4 E2 F4 z4 | A4 _B2 A2 A2 A2 A2 G4 ^F2 G4 z4 | F4 E2 F2 F2 G2 A2 A4 ^G2 A4 z4 | %11
 F4 G4 G4 F2 D2 E2 D4 ^C2 D8 |] %12
V:2
 F4 G2 G2 E4 D4 E2 D4 ^C2 D4 x4 | D4 D2 C2 D2 E2 E2 E2 E4 C4 x4 | F4 G2 E2 D2 E2 F2 F4 E2 F4 x4 | %3
 D4 D2 D2 A,2 A,2 D2 D2 C4 B,4 x4 | F4 E2 F2 D2 D2 F2 F2 E4 C4 x4 | C4 E4 E4 D2 D2 E2 D4 ^C2 D8 || %6
 D4 E2 D2 C4 A,4 C2 A,2 A,4 F,4 x4 | A,4 A,2 A,2 A,2 C2 C2 E2 E4 C4 x4 | %8
 D4 D2 C2 A,2 C2 C2 D2 C4 A,4 x4 | D4 D2 D2 F2 E2 D2 D2 C4 B,4 x4 | %10
 A,4 A,2 A,2 D2 D2 F2 F2 E4 C4 x4 | C4 E4 E4 D2 A,2 C2 A,2 A,4 F,8 |] %12
V:3
 D4 E2 D2 C4 A,4 C2 A,2 A,4 F,4 z4 | A,4 F,2 A,2 A,2 C2 C2 A,4 ^G,2 A,4 z4 | %2
 D4 D2 C2 A,2 C2 C2 D2 C4 A,4 z4 | A,4 _B,2 A,2 F,2 A,2 A,2 G,4 ^F,2 G,4 z4 | %4
 A,4 A,2 A,2 F,2 G,2 A,2 A,4 ^G,2 A,4 z4 | F,4 G,4 G,4 F,2 A,2 C2 A,2 A,4 F,8 || %6
"^c.f." A,4 C2 B,2 A,4 F,4 G,2 F,2 E,4 D,4 z4 | F,4 D,2 E,2 F,2 G,2 A,2 C2 B,4 A,4 z4 | %8
 A,4 _B,2 A,2 F,2 G,2 A,2 B,2 G,4 F,4 z4 | F,4 G,2 F,2 D,2 E,2 F,2 G,2 A,4 D,4 z4 | %10
 D4 C2 D2 A,2 B,2 C2 D2 B,4 A,4 z4 | A,4 B,4 C4 A,2 F,2 G,2 F,2 E,4 D,8 |] %12
V:4
 D,4 C,2 G,,2 A,,4 D,4 C,2 D,2 A,,4 D,4 x4 | D,4 D,2 A,,2 D,2 C,2 A,,2 A,,2 E,4 A,,4 x4 | %2
 D,4 G,,2 A,,2 D,2 C,2 F,2 _B,,2 C,4 F,,4 x4 | D,4 G,,2 D,2 D,2 ^C,2 D,2 B,,2 A,,4 G,,4 x4 | %4
 D,4 A,,2 D,2 D,2 G,2 F,2 D,2 E,4 A,,4 x4 | F,4 E,4 C,4 D,2 D,2 C,2 D,2 A,,4 D,8 || %6
 D,4 C,2 G,,2 A,,4 D,4 C,2 D,2 A,,4 D,4 x4 | D,4 D,2 A,,2 D,2 C,2 A,,2 A,,2 E,4 A,,4 x4 | %8
 D,4 G,,2 A,,2 D,2 C,2 F,2 _B,,2 C,4 F,,4 x4 | D,4 G,,2 D,2 D,2 ^C,2 D,2 B,,2 A,,4 G,,4 x4 | %10
 D,4 A,,2 D,2 D,2 G,2 F,2 D,2 E,4 A,,4 x4 | F,4 E,4 C,4 D,2 D,2 C,2 D,2 A,,4 D,8 |] %12

